X: 5
I: linebreak $
T: Chirintana
T: T'Andernaken / Laet Ons Mit Hartzen
C: Emma Badowski, based on anonymous 15th C. Dutch melodies
P: AABB; repeat C until done
N: Drone: D/A
K: D dorian
M: 2/2
L: 1/4
P: A
"^Quadernaria"A_B A/G/F/A/ | dc/_B/ A/F/G | AA cd | AF/G/ AG/F/ | E/D/E DD :: 
P: B
FF cc/_B/ | 
AG FF/G/ | AA FG | AD/A/ GF |  [1 E/D/E DD :|]  [2 E/D/E DD | A/ :: 
M: 6/8
P: C
"^Piva"FE/ DC/ | FE/ DA/ | AB/ cA/ | cB/ AA/ | FE/ DC/ | FE/ DF/ | 
FF/ GF/ | E3/ DE/ | G/F/E/ ED/ | E3/- EF/ | FF/ GF/ | E3/ DE/ | 
G/F/E/ ED/ | E3/- EA/ | FE/ DC/ | FE/ DA/ | AB/ cA/ | cB/ AA/ | 
FE/ DC/ | FE/ DF/ | FF/ GF/ |  [1 E3/ DA/ :|]  [2 E3/ D3/ :| 

